static/images/brand/logo.svg

<?xml version="1.0" encoding="UTF-8" standalone="no"?>
<!-- Created with Inkscape (http://www.inkscape.org/) -->

<svg
   width="2000"
   height="2000"
   viewBox="0 0 529.16665 529.16668"
   version="1.1"
   id="svg8"
   sodipodi:docname="logo.svg"
   inkscape:version="1.4 (86a8ad7, 2024-10-11)"
   inkscape:export-filename="logo.png"
   inkscape:export-xdpi="3.072"
   inkscape:export-ydpi="3.072"
   xmlns:inkscape="http://www.inkscape.org/namespaces/inkscape"
   xmlns:sodipodi="http://sodipodi.sourceforge.net/DTD/sodipodi-0.dtd"
   xmlns="http://www.w3.org/2000/svg"
   xmlns:svg="http://www.w3.org/2000/svg"
   xmlns:rdf="http://www.w3.org/1999/02/22-rdf-syntax-ns#"
   xmlns:cc="http://creativecommons.org/ns#"
   xmlns:dc="http://purl.org/dc/elements/1.1/">
  <defs
     id="defs2">
    <marker
       inkscape:stockid="DotS"
       orient="auto"
       refY="0.0"
       refX="0.0"
       id="marker1488"
       style="overflow:visible"
       inkscape:isstock="true">
      <path
         id="path1486"
         d="M -2.5,-1.0 C -2.5,1.7600000 -4.7400000,4.0 -7.5,4.0 C -10.260000,4.0 -12.5,1.7600000 -12.5,-1.0 C -12.5,-3.7600000 -10.260000,-6.0 -7.5,-6.0 C -4.7400000,-6.0 -2.5,-3.7600000 -2.5,-1.0 z "
         style="fill-rule:evenodd;stroke:#000000;stroke-width:1pt;stroke-opacity:1;fill:#000000;fill-opacity:1"
         transform="scale(0.2) translate(7.4, 1)" />
    </marker>
    <marker
       inkscape:stockid="DotS"
       orient="auto"
       refY="0.0"
       refX="0.0"
       id="marker1424"
       style="overflow:visible"
       inkscape:isstock="true">
      <path
         id="path1422"
         d="M -2.5,-1.0 C -2.5,1.7600000 -4.7400000,4.0 -7.5,4.0 C -10.260000,4.0 -12.5,1.7600000 -12.5,-1.0 C -12.5,-3.7600000 -10.260000,-6.0 -7.5,-6.0 C -4.7400000,-6.0 -2.5,-3.7600000 -2.5,-1.0 z "
         style="fill-rule:evenodd;stroke:#000000;stroke-width:1pt;stroke-opacity:1;fill:#000000;fill-opacity:1"
         transform="scale(0.2) translate(7.4, 1)" />
    </marker>
    <marker
       inkscape:stockid="DotS"
       orient="auto"
       refY="0.0"
       refX="0.0"
       id="DotS"
       style="overflow:visible"
       inkscape:isstock="true">
      <path
         id="path963"
         d="M -2.5,-1.0 C -2.5,1.7600000 -4.7400000,4.0 -7.5,4.0 C -10.260000,4.0 -12.5,1.7600000 -12.5,-1.0 C -12.5,-3.7600000 -10.260000,-6.0 -7.5,-6.0 C -4.7400000,-6.0 -2.5,-3.7600000 -2.5,-1.0 z "
         style="fill-rule:evenodd;stroke:#000000;stroke-width:1pt;stroke-opacity:1;fill:#000000;fill-opacity:1"
         transform="scale(0.2) translate(7.4, 1)" />
    </marker>
    <marker
       inkscape:stockid="Arrow1Sstart"
       orient="auto"
       refY="0.0"
       refX="0.0"
       id="Arrow1Sstart"
       style="overflow:visible"
       inkscape:isstock="true">
      <path
         id="path908"
         d="M 0.0,0.0 L 5.0,-5.0 L -12.5,0.0 L 5.0,5.0 L 0.0,0.0 z "
         style="fill-rule:evenodd;stroke:#000000;stroke-width:1pt;stroke-opacity:1;fill:#000000;fill-opacity:1"
         transform="scale(0.2) translate(6,0)" />
    </marker>
    <marker
       inkscape:stockid="Arrow1Send"
       orient="auto"
       refY="0.0"
       refX="0.0"
       id="Arrow1Send"
       style="overflow:visible;"
       inkscape:isstock="true">
      <path
         id="path911"
         d="M 0.0,0.0 L 5.0,-5.0 L -12.5,0.0 L 5.0,5.0 L 0.0,0.0 z "
         style="fill-rule:evenodd;stroke:#000000;stroke-width:1pt;stroke-opacity:1;fill:#000000;fill-opacity:1"
         transform="scale(0.2) rotate(180) translate(6,0)" />
    </marker>
    <marker
       inkscape:stockid="Arrow2Sstart"
       orient="auto"
       refY="0.0"
       refX="0.0"
       id="Arrow2Sstart"
       style="overflow:visible"
       inkscape:isstock="true">
      <path
         id="path926"
         style="fill-rule:evenodd;stroke-width:0.625;stroke-linejoin:round;stroke:#000000;stroke-opacity:1;fill:#000000;fill-opacity:1"
         d="M 8.7185878,4.0337352 L -2.2072895,0.016013256 L 8.7185884,-4.0017078 C 6.9730900,-1.6296469 6.9831476,1.6157441 8.7185878,4.0337352 z "
         transform="scale(0.3) translate(-2.3,0)" />
    </marker>
    <marker
       inkscape:stockid="Club"
       orient="auto"
       refY="0.0"
       refX="0.0"
       id="Club"
       style="overflow:visible"
       inkscape:isstock="true">
      <path
         id="path1125"
         d="M -1.5971367,-7.0977635 C -3.4863874,-7.0977635 -5.0235187,-5.5606321 -5.0235187,-3.6713813 C -5.0235187,-3.0147015 -4.7851656,-2.4444556 -4.4641095,-1.9232271 C -4.5028609,-1.8911157 -4.5437814,-1.8647646 -4.5806531,-1.8299921 C -5.2030765,-2.6849849 -6.1700514,-3.2751330 -7.3077730,-3.2751330 C -9.1970245,-3.2751331 -10.734155,-1.7380016 -10.734155,0.15124914 C -10.734155,2.0404999 -9.1970245,3.5776313 -7.3077730,3.5776313 C -6.3143268,3.5776313 -5.4391540,3.1355702 -4.8137404,2.4588126 C -4.9384274,2.8137041 -5.0235187,3.1803000 -5.0235187,3.5776313 C -5.0235187,5.4668819 -3.4863874,7.0040135 -1.5971367,7.0040135 C 0.29211394,7.0040135 1.8292454,5.4668819 1.8292454,3.5776313 C 1.8292454,2.7842354 1.5136868,2.0838028 1.0600576,1.5031550 C 2.4152718,1.7663868 3.7718375,2.2973711 4.7661444,3.8340272 C 4.0279463,3.0958289 3.5540908,1.7534117 3.5540908,-0.058529361 L 2.9247554,-0.10514681 L 3.5074733,-0.12845553 C 3.5074733,-1.9403966 3.9580199,-3.2828138 4.6962183,-4.0210121 C 3.7371277,-2.5387813 2.4390549,-1.9946496 1.1299838,-1.7134486 C 1.5341802,-2.2753578 1.8292454,-2.9268556 1.8292454,-3.6713813 C 1.8292454,-5.5606319 0.29211394,-7.0977635 -1.5971367,-7.0977635 z "
         style="fill-rule:evenodd;stroke:#000000;stroke-width:0.74587913pt;stroke-opacity:1;fill:#000000;fill-opacity:1"
         transform="scale(0.6)" />
    </marker>
    <marker
       inkscape:stockid="DotL"
       orient="auto"
       refY="0.0"
       refX="0.0"
       id="DotL"
       style="overflow:visible"
       inkscape:isstock="true">
      <path
         id="path957"
         d="M -2.5,-1.0 C -2.5,1.7600000 -4.7400000,4.0 -7.5,4.0 C -10.260000,4.0 -12.5,1.7600000 -12.5,-1.0 C -12.5,-3.7600000 -10.260000,-6.0 -7.5,-6.0 C -4.7400000,-6.0 -2.5,-3.7600000 -2.5,-1.0 z "
         style="fill-rule:evenodd;stroke:#000000;stroke-width:1pt;stroke-opacity:1;fill:#000000;fill-opacity:1"
         transform="scale(0.8) translate(7.4, 1)" />
    </marker>
    <inkscape:perspective
       sodipodi:type="inkscape:persp3d"
       inkscape:vp_x="0 : 264.58334 : 1"
       inkscape:vp_y="0 : 1000 : 0"
       inkscape:vp_z="529.16665 : 264.58334 : 1"
       inkscape:persp3d-origin="264.58333 : 176.38889 : 1"
       id="perspective863" />
  </defs>
  <sodipodi:namedview
     id="base"
     pagecolor="#000000"
     bordercolor="#666666"
     borderopacity="1.0"
     inkscape:pageopacity="0.0"
     inkscape:pageshadow="2"
     inkscape:zoom="0.16"
     inkscape:cx="556.25"
     inkscape:cy="778.125"
     inkscape:document-units="mm"
     inkscape:current-layer="g4586"
     showgrid="false"
     inkscape:pagecheckerboard="true"
     inkscape:showpageshadow="false"
     borderlayer="true"
     units="px"
     inkscape:snap-object-midpoints="false"
     inkscape:snap-page="false"
     inkscape:window-width="3440"
     inkscape:window-height="1377"
     inkscape:window-x="-8"
     inkscape:window-y="-8"
     inkscape:window-maximized="1"
     inkscape:snap-center="true"
     inkscape:deskcolor="#505050" />
  <metadata
     id="metadata5">
    <rdf:RDF>
      <cc:Work
         rdf:about="">
        <dc:format>image/svg+xml</dc:format>
        <dc:type
           rdf:resource="http://purl.org/dc/dcmitype/StillImage" />
      </cc:Work>
    </rdf:RDF>
  </metadata>
  <g
     inkscape:label="Layer 1"
     inkscape:groupmode="layer"
     id="layer1"
     transform="translate(0,232.16668)">
    <g
       id="g4586"
       transform="translate(0.06261988,1.0350933)">
      <g
         id="g864">
        <path
           style="fill:#f1f1f1;fill-opacity:1;fill-rule:evenodd;stroke:none;stroke-width:0.26458332px;stroke-linecap:butt;stroke-linejoin:miter;stroke-opacity:1"
           d="m 119.79072,-51.378626 144.78299,-83.590494 144.78298,83.590491 V 115.80236 l -144.78298,83.5905 -144.78299,-83.5905 z"
           id="path886"
           inkscape:connector-curvature="0" />
        <path
           style="fill:#38c312;fill-opacity:1;fill-rule:evenodd;stroke:#1a1a1a;stroke-width:9.442;stroke-linecap:round;stroke-linejoin:round;stroke-miterlimit:4;stroke-dasharray:none;stroke-opacity:1"
           d="M 6.3891148,31.381548 135.45493,-192.16697 l 129.11878,57.19785 -144.78299,83.590497 z"
           id="path880"
           inkscape:connector-curvature="0" />
        <path
           style="fill:#f3b818;fill-opacity:1;fill-rule:evenodd;stroke:#1a1a1a;stroke-width:9.442;stroke-linecap:round;stroke-linejoin:round;stroke-miterlimit:4;stroke-dasharray:none;stroke-opacity:1"
           d="M 135.4549,254.93009 6.3891148,31.38155 119.79072,-51.378623 V 115.80236 Z"
           id="path878"
           inkscape:connector-curvature="0" />
        <path
           style="fill:#f93131;fill-opacity:1;fill-rule:evenodd;stroke:#1a1a1a;stroke-width:9.442;stroke-linecap:round;stroke-linejoin:round;stroke-miterlimit:4;stroke-dasharray:none;stroke-opacity:1"
           d="M 264.57371,199.39286 119.79072,115.80236 135.4549,254.93009 H 393.58648 Z"
           id="path876"
           inkscape:connector-curvature="0" />
        <path
           style="fill:#f356c7;fill-opacity:1;fill-rule:evenodd;stroke:#1a1a1a;stroke-width:9.442;stroke-linecap:round;stroke-linejoin:round;stroke-miterlimit:4;stroke-dasharray:none;stroke-opacity:1"
           d="M 409.3567,115.80236 264.57371,199.39286 393.58648,254.93009 522.65231,31.381573 Z"
           id="path874"
           inkscape:connector-curvature="0" />
        <path
           style="fill:#2053f8;fill-opacity:1;fill-rule:evenodd;stroke:#1a1a1a;stroke-width:9.442;stroke-linecap:round;stroke-linejoin:round;stroke-miterlimit:4;stroke-dasharray:none;stroke-opacity:1"
           d="M 393.5865,-192.16695 522.65231,31.381577 409.3567,115.80236 V -51.378629 Z"
           id="path872"
           inkscape:connector-curvature="0" />
        <path
           style="fill:#29c4e5;fill-opacity:1;fill-rule:evenodd;stroke:#1a1a1a;stroke-width:9.442;stroke-linecap:round;stroke-linejoin:round;stroke-miterlimit:4;stroke-dasharray:none;stroke-opacity:1"
           d="m 264.57371,-134.96912 -129.11878,-57.19785 258.13157,2e-5 15.7702,140.788323 z"
           id="path867"
           inkscape:connector-curvature="0" />
        <path
           inkscape:connector-curvature="0"
           id="path884"
           style="fill:none;fill-rule:evenodd;stroke:#1a1a1a;stroke-width:9.44236565;stroke-linecap:round;stroke-linejoin:round;stroke-miterlimit:4;stroke-dasharray:none;stroke-opacity:1"
           d="M 264.57371,32.211872 282.67158,21.763059 300.76945,11.314247 318.86733,0.86543503 336.9652,-9.5833773 355.06308,-20.032189 373.16096,-30.481002 391.25882,-40.929815 M 264.57371,178.49523 V 157.59761 136.69999 115.80236 94.904743 74.00712 53.109498 32.211874 L 246.47583,21.763063 228.37796,11.31425 210.28009,0.86543788 192.18222,-9.5833743 174.08434,-20.032187 155.98647,-30.480998 137.8886,-40.929811" />
      </g>
    </g>
  </g>
</svg>

<svg xmlns="http://www.w3.org/2000/svg" width="2000" height="2000" viewBox="0 0 529.167 529.167"><path d="m119.79-51.379 144.784-83.59 144.783 83.59v167.181l-144.783 83.59-144.783-83.59z" style="fill:#f1f1f1;" transform="translate(.063 233.202)"/><path d="m6.39 31.382 129.065-223.549 129.119 57.198L119.79-51.38z" style="fill:#38c312;stroke:#1a1a1a;stroke-width:9.442;stroke-linecap:round;stroke-linejoin:round;" transform="translate(.063 233.202)"/><path d="M135.455 254.93 6.389 31.382l113.402-82.76v167.18Z" style="fill:#f3b818;stroke:#1a1a1a;stroke-width:9.442;stroke-linecap:round;stroke-linejoin:round;" transform="translate(.063 233.202)"/><path d="m264.574 199.393-144.783-83.59 15.664 139.127h258.131Z" style="fill:#f93131;stroke:#1a1a1a;stroke-width:9.442;stroke-linecap:round;stroke-linejoin:round;" transform="translate(.063 233.202)"/><path d="m409.357 115.802-144.783 83.59 129.012 55.538L522.652 31.382Z" style="fill:#f356c7;stroke:#1a1a1a;stroke-width:9.442;stroke-linecap:round;stroke-linejoin:round;" transform="translate(.063 233.202)"/><path d="M393.587-192.167 522.651 31.382l-113.295 84.42v-167.18Z" style="fill:#2053f8;stroke:#1a1a1a;stroke-width:9.442;stroke-linecap:round;stroke-linejoin:round;" transform="translate(.063 233.202)"/><path d="m264.574-134.97-129.12-57.197h258.133l15.77 140.788z" style="fill:#29c4e5;stroke:#1a1a1a;stroke-width:9.442;stroke-linecap:round;stroke-linejoin:round;" transform="translate(.063 233.202)"/><path d="M264.574 32.212 391.259-40.93M264.574 178.495V32.212L137.889-40.93" style="fill:none;stroke:#1a1a1a;stroke-width:9.442;stroke-linecap:round;stroke-linejoin:round;" transform="translate(.063 233.202)"/></svg>
